X:744051
T:Highland Cathedral Orchestrated 
T: Merged
M:4/4
L:1/8
Q:1/4=60
K:Emaj% 3 flats
%%landscape
%%scale 0.5
V:6 name="Snare" sname="Snare"
%%MIDI channel 10
[K:C]]z8| \
D,,/2z/2 (3D,,/2D,,/2D,,/2 D,,/2z/2 (3D,,/2D,,/2D,,/2 D,,/2z/2 (3D,,/2D,,/2D,,/2  (3D,,/2D,,/2D,,/2 (3D,,/2D,,/2D,,/2| \
D,,/2z/2 (3D,,/2D,,/2D,,/2 D,,/2z/2 (3D,,/2D,,/2D,,/2 D,,/2z/2 (3D,,/2D,,/2D,,/2  (3D,,/2D,,/2D,,/2 (3D,,/2D,,/2D,,/2| \
D,,/2z/2 (3D,,/2D,,/2D,,/2 D,,/2z/2 (3D,,/2D,,/2D,,/2 D,,/2z/2 (3D,,/2D,,/2D,,/2  (3D,,/2D,,/2D,,/2 (3D,,/2D,,/2D,,/2|
D,,/2z/2 (3D,,/2D,,/2D,,/2 D,,/2z/2 (3D,,/2D,,/2D,,/2 D,,/2z/2 (3D,,/2D,,/2D,,/2  (3D,,/2D,,/2D,,/2 (3D,,/2D,,/2D,,/2| \
D,,/2z/2 (3D,,/2D,,/2D,,/2 D,,/2z/2 (3D,,/2D,,/2D,,/2 D,,/2z/2 (3D,,/2D,,/2D,,/2  (3D,,/2D,,/2D,,/2 (3D,,/2D,,/2D,,/2| \
D,,/2z/2 (3D,,/2D,,/2D,,/2 D,,/2z/2 (3D,,/2D,,/2D,,/2 D,,/2z/2 (3D,,/2D,,/2D,,/2  (3D,,/2D,,/2D,,/2 (3D,,/2D,,/2D,,/2| \
D,,/2z/2 (3D,,/2D,,/2D,,/2 D,,/2z/2 (3D,,/2D,,/2D,,/2 D,,/2z/2 (3D,,/2D,,/2D,,/2  (3D,,/2D,,/2D,,/2 (3D,,/2D,,/2D,,/2|
D,,/2z/2 (3D,,/2D,,/2D,,/2 D,,/2z/2 (3D,,/2D,,/2D,,/2 D,,/2z/2 (3D,,/2D,,/2D,,/2  (3D,,/2D,,/2D,,/2 (3D,,/2D,,/2D,,/2| \
D,,/2z/2 (3D,,/2D,,/2D,,/2 D,,/2z/2 (3D,,/2D,,/2D,,/2 D,,/2z/2 (3D,,/2D,,/2D,,/2  (3D,,/2D,,/2D,,/2 (3D,,/2D,,/2D,,/2| \
D,,/2z/2 (3D,,/2D,,/2D,,/2 D,,/2z/2 (3D,,/2D,,/2D,,/2 D,,/2z/2 (3D,,/2D,,/2D,,/2  (3D,,/2D,,/2D,,/2 (3D,,/2D,,/2D,,/2| \
D,,/2z/2 (3D,,/2D,,/2D,,/2 D,,/2z/2 (3D,,/2D,,/2D,,/2 D,,/2z/2 (3D,,/2D,,/2D,,/2  (3D,,/2D,,/2D,,/2 (3D,,/2D,,/2D,,/2|
D,,/2z/2 (3D,,/2D,,/2D,,/2 D,,/2z/2 (3D,,/2D,,/2D,,/2 D,,/2z/2 (3D,,/2D,,/2D,,/2  (3D,,/2D,,/2D,,/2 (3D,,/2D,,/2D,,/2| \
D,,/2z/2 (3D,,/2D,,/2D,,/2 D,,/2z/2 (3D,,/2D,,/2D,,/2 D,,/2z/2 (3D,,/2D,,/2D,,/2  (3D,,/2D,,/2D,,/2 (3D,,/2D,,/2D,,/2| \
D,,/2z/2 (3D,,/2D,,/2D,,/2 D,,/2z/2 (3D,,/2D,,/2D,,/2 D,,/2z/2 (3D,,/2D,,/2D,,/2  (3D,,/2D,,/2D,,/2 (3D,,/2D,,/2D,,/2| \
D,,/2z/2 (3D,,/2D,,/2D,,/2 D,,/2z/2 (3D,,/2D,,/2D,,/2 D,,/2z/2 (3D,,/2D,,/2D,,/2  (3D,,/2D,,/2D,,/2 (3D,,/2D,,/2D,,/2|
D,,/2z/2 (3D,,/2D,,/2D,,/2 D,,/2z/2 (3D,,/2D,,/2D,,/2 D,,/2z/2 (3D,,/2D,,/2D,,/2  (3D,,/2D,,/2D,,/2 (3D,,/2D,,/2D,,/2| \
D,,/2z/2 (3D,,/2D,,/2D,,/2 D,,/2z/2 (3D,,/2D,,/2D,,/2 D,,/2z/2 (3D,,/2D,,/2D,,/2  (3D,,/2D,,/2D,,/2 (3D,,/2D,,/2D,,/2| \
D,,/2z/2 (3D,,/2D,,/2D,,/2 D,,/2z/2 (3D,,/2D,,/2D,,/2 D,,/2z/2 (3D,,/2D,,/2D,,/2  (3D,,/2D,,/2D,,/2 (3D,,/2D,,/2D,,/2| \
D,,/2z/2 (3D,,/2D,,/2D,,/2 D,,/2z/2 (3D,,/2D,,/2D,,/2 D,,/2z/2 (3D,,/2D,,/2D,,/2  (3D,,/2D,,/2D,,/2 (3D,,/2D,,/2D,,/2|
!fff!D,,/2z/2 (3D,,/2D,,/2D,,/2 D,,/2z/2 (3D,,/2D,,/2D,,/2 D,,/2z/2 (3D,,/2D,,/2D,,/2  (3D,,/2D,,/2D,,/2 (3D,,/2D,,/2D,,/2| \
D,,/2z/2 (3D,,/2D,,/2D,,/2 D,,/2z/2 (3D,,/2D,,/2D,,/2 D,,/2z/2 (3D,,/2D,,/2D,,/2  (3D,,/2D,,/2D,,/2 (3D,,/2D,,/2D,,/2| \
D,,/2z/2 (3D,,/2D,,/2D,,/2 D,,/2z/2 (3D,,/2D,,/2D,,/2 D,,/2z/2 (3D,,/2D,,/2D,,/2  (3D,,/2D,,/2D,,/2 (3D,,/2D,,/2D,,/2| \
D,,/2z/2 (3D,,/2D,,/2D,,/2 D,,/2z/2 (3D,,/2D,,/2D,,/2 D,,/2z/2 (3D,,/2D,,/2D,,/2  (3D,,/2D,,/2D,,/2 (3D,,/2D,,/2D,,/2|
D,,/2z/2 (3D,,/2D,,/2D,,/2 D,,/2z/2 (3D,,/2D,,/2D,,/2 D,,/2z/2 (3D,,/2D,,/2D,,/2  (3D,,/2D,,/2D,,/2 (3D,,/2D,,/2D,,/2| \
D,,/2z/2 (3D,,/2D,,/2D,,/2 D,,/2z/2 (3D,,/2D,,/2D,,/2 D,,/2z/2 (3D,,/2D,,/2D,,/2  (3D,,/2D,,/2D,,/2 (3D,,/2D,,/2D,,/2| \
D,,/2z/2 (3D,,/2D,,/2D,,/2 D,,/2z/2 (3D,,/2D,,/2D,,/2 D,,/2z/2 (3D,,/2D,,/2D,,/2  (3D,,/2D,,/2D,,/2 (3D,,/2D,,/2D,,/2| \
D,,/2z/2 (3D,,/2D,,/2D,,/2 D,,/2z/2 (3D,,/2D,,/2D,,/2 D,,/2z/2 (3D,,/2D,,/2D,,/2  (3D,,/2D,,/2D,,/2 (3D,,/2D,,/2D,,/2|
D,,/2z/2 (3D,,/2D,,/2D,,/2 D,,/2z/2 (3D,,/2D,,/2D,,/2 D,,/2z/2 (3D,,/2D,,/2D,,/2  (3D,,/2D,,/2D,,/2 (3D,,/2D,,/2D,,/2| \
D,,/2z/2 (3D,,/2D,,/2D,,/2 D,,/2z/2 (3D,,/2D,,/2D,,/2 D,,/2z/2 (3D,,/2D,,/2D,,/2  (3D,,/2D,,/2D,,/2 (3D,,/2D,,/2D,,/2| \
D,,/2z/2 (3D,,/2D,,/2D,,/2 D,,/2z/2 (3D,,/2D,,/2D,,/2 D,,/2z/2 (3D,,/2D,,/2D,,/2  (3D,,/2D,,/2D,,/2 (3D,,/2D,,/2D,,/2| \
D,,/2z/2 (3D,,/2D,,/2D,,/2 D,,/2z/2 (3D,,/2D,,/2D,,/2 D,,/2z/2 (3D,,/2D,,/2D,,/2  (3D,,/2D,,/2D,,/2 (3D,,/2D,,/2D,,/2|
D,,/2z/2 (3D,,/2D,,/2D,,/2 D,,/2z/2 (3D,,/2D,,/2D,,/2 D,,/2z/2 (3D,,/2D,,/2D,,/2  (3D,,/2D,,/2D,,/2 (3D,,/2D,,/2D,,/2| \
D,,/2z/2 (3D,,/2D,,/2D,,/2 D,,/2z/2 (3D,,/2D,,/2D,,/2 D,,/2z/2 (3D,,/2D,,/2D,,/2  (3D,,/2D,,/2D,,/2 (3D,,/2D,,/2D,,/2| \
D,,/2z/2 (3D,,/2D,,/2D,,/2 D,,/2z/2 (3D,,/2D,,/2D,,/2 D,,/2z/2 (3D,,/2D,,/2D,,/2  (3D,,/2D,,/2D,,/2 (3D,,/2D,,/2D,,/2| \
D,,/2z/2 (3D,,/2D,,/2D,,/2 D,,/2z/2 (3D,,/2D,,/2D,,/2 D,,/2z/2 (3D,,/2D,,/2D,,/2  (3D,,/2D,,/2D,,/2 (3D,,/2D,,/2D,,/2|
D,,/2z/2 (3D,,/2D,,/2D,,/2 D,,/2z/2 (3D,,/2D,,/2D,,/2 D,,/2z/2 (3D,,/2D,,/2D,,/2  (3D,,/2D,,/2D,,/2 (3D,,/2D,,/2D,,/2| \
D,,/2z/2 (3D,,/2D,,/2D,,/2 D,,/2z/2 (3D,,/2D,,/2D,,/2 D,,/2z/2 (3D,,/2D,,/2D,,/2  (3D,,/2D,,/2D,,/2 (3D,,/2D,,/2D,,/2| \
D,,/2z/2 (3D,,/2D,,/2D,,/2 D,,/2z/2 (3D,,/2D,,/2D,,/2 D,,/2z/2 (3D,,/2D,,/2D,,/2  (3D,,/2D,,/2D,,/2 (3D,,/2D,,/2D,,/2| \
D,,/2z/2 (3D,,/2D,,/2D,,/2 D,,/2z/2 (3D,,/2D,,/2D,,/2 D,,/2z/2 (3D,,/2D,,/2D,,/2  (3D,,/2D,,/2D,,/2 (3D,,/2D,,/2D,,/2|
D,,/2z/2 (3D,,/2D,,/2D,,/2 D,,/2z/2 (3D,,/2D,,/2D,,/2 D,,/2z/2 (3D,,/2D,,/2D,,/2  (3D,,/2D,,/2D,,/2 (3D,,/2D,,/2D,,/2| \
D,,/2z/2 (3D,,/2D,,/2D,,/2 D,,/2z/2 (3D,,/2D,,/2D,,/2 D,,/2z/2 (3D,,/2D,,/2D,,/2  (3D,,/2D,,/2D,,/2 (3D,,/2D,,/2D,,/2| \
D,,/2z/2 (3D,,/2D,,/2D,,/2 D,,/2z/2 (3D,,/2D,,/2D,,/2 D,,/2z/2 (3D,,/2D,,/2D,,/2  (3D,,/2D,,/2D,,/2 (3D,,/2D,,/2D,,/2| \
D,,/2z/2 (3D,,/2D,,/2D,,/2 D,,/2z/2 (3D,,/2D,,/2D,,/2 D,,/2z/2 (3D,,/2D,,/2D,,/2  (3D,,/2D,,/2D,,/2 (3D,,/2D,,/2D,,/2|
D,,/2z/2 (3D,,/2D,,/2D,,/2 D,,/2z/2 (3D,,/2D,,/2D,,/2 D,,/2z/2 (3D,,/2D,,/2D,,/2  (3D,,/2D,,/2D,,/2 (3D,,/2D,,/2D,,/2| \
D,,/2z/2 (3D,,/2D,,/2D,,/2 D,,/2z/2 (3D,,/2D,,/2D,,/2 D,,/2z/2 (3D,,/2D,,/2D,,/2  (3D,,/2D,,/2D,,/2 (3D,,/2D,,/2D,,/2| \
D,,/2z/2 (3D,,/2D,,/2D,,/2 D,,/2z/2 (3D,,/2D,,/2D,,/2 D,,/2z/2 (3D,,/2D,,/2D,,/2  (3D,,/2D,,/2D,,/2 (3D,,/2D,,/2D,,/2|
V:Flute name="Flute" sname="Flute" " " " " 
z8| \
z8| \
z8| \
z8|
z4 
%%MIDI program 72
e''/2d''/2c''/2b'/2 a'/2g'/2f'/2e'/2| \
g'3a'/2b'/2 a'4| \
z4 b/2c'/2d'/2e'/2 f'/2g'/2e''/2d''/2| \
a'4 g'4|
b'3a' g'4| \
f'3g'/2a'/2 b'2 e''2| \
d''b' a'e' e'4||
d'4 f'3d'/2f'/2|
g'3d'2<d'2c'| \
b3c'/2d'/2 c'4| \
d'3-[e'd'-]/2[f'd']/2 c'4| \
d'3b2<f'2d'/2f'/2|
g'3d'2<d'2c'| \
b3c'/2d'/2 c'3b| \
b2 d'2 f'2 b'2| \
b'/2b/2c'/2d'/2 e'/2f'/2g'/2a'/2 b'/2e'/2f'/2g'/2 a'/2b'/2c''/2d''/2||
V:Alto
!ppp!z8| \
z8| \
z8| \
z8|
z8| \
z8| \
z8| \
z8|
z8| \
%%MIDI program 66
F,4 G,4| \
F,4 E,4|| \
zB, DB, zC FC|
zB, DB, zB, DB,| \
G,4 A,4| \
B,4 C4| \
zB, DB, zC FC|
zB, DB, zB, DB,| \
G,4 A,4| \
B,4 A,4| \
G,4 F,4||
V:Tenor name="Tenor" sname="Tenor"
!ppp!z8| \
z8| \
z8| \
z8|
z8| \
z8| \
z8| \
z8|
z8| \
%%MIDI program 65
%%MIDI program 65
dd df ^ec Gc| \
dd d^e e4|| \
^B4 d4|
^e4 d4| \
c4 d4| \
^B4 d4| \
^B4 d4|
^e4 d4| \
c4 g4| \
g8| \
c8||
V:Bari transpose=-4 name="Sax" sname="Sax" 
z8| \
z8| \
z8| \
z8|
z8| \
z8| \
z8| \
z8|
z8| \
z8| \
z8||
%%MIDI program 71
!ppp!D/2F/2F/2F/2 D/2F/2F/2F/2 C/2F/2F/2F/2 C/2F/2F/2F/2|
D/2G/2G/2G/2 D/2G/2G/2G/2 D/2F/2F/2F/2 D/2F/2F/2F/2| \
E/2G/2G/2G/2 E/2G/2G/2G/2 D/2F/2F/2F/2 D/2F/2F/2F/2| \
D/2F/2F/2F/2 D/2F/2F/2F/2 C/2F/2F/2E/2 C/2F/2F/2F/2| \
D/2F/2B/2B/2 D/2F/2B/2B/2 F/2A/2A/2A/2 F/2A/2A/2A/2|
D/2B/2B/2B/2 D/2B/2B/2B/2 D/2B/2B/2B/2 D/2B/2B/2B/2| \
G/2B/2B/2B/2 G/2B/2B/2B/2 A/2c/2c/2c/2 [cA]/2c/2c/2c/2| \
Bc de Bc de| \
cd ef cd ef||
V:Clarinet name="Clarinet" sname="Clarinet"
z8| \
z8| \
z8| \
%%MIDI program 71
B,E EE B,E EE|
DF F2 B,E E2| \
EG G2 DF F2| \
CF F2 D4| \
CE E2 E4|
B3A G4| \
A4 G4| \
F4 E4||
d3B2<f2d/2f/2|
g3d2<d2c| \
B3c/2d/2 c4| \
d3e/2f/2 c4| \
d3B2<f2d/2f/2|
g3d2<d2c| \
B3c/2d/2 c3-[cB]| \
B4 d4| \
f4 b4||
V:Trombone name="Trombone" sname="Trombone" 
z8| \
z8| \
z8| \
%%MIDI program 57
[EG,]8|
[DF,]4 [EG,]4| \
[CE,]4 [DF,]4| \
[CF,]4 [B,F,]4| \
[CA,]4 [EG,]4|
[DA,]4 [CG,]4| \
[CA,]4 [EG,]4| \
[DF,]4 [EG,]4||
D4 F4|
G4 F4| \
E4 F4| \
D4 C4| \
D4 F4|
G4 F4| \
E4 F4| \
[DB,]8| \
[DB,]8||
V:Tuba name="Tuba" sname="Tuba"
z8| \
z8| \
z8| \
%%MIDI program 58
E,,4 E,,4|
B,,,4 z4| \
C,,4 B,,,4| \
^A,,,4 B,,,4| \
A,,,4 G,,,4|
B,,,2- [^B,,,=B,,,]2 C,,3-[C,,B,,,]| \
A,,,4 B,,,4| \
B,,,4 E,,4||
B,,,4 ^A,,,4|
G,,,4 F,,,4| \
E,,,4 F,,,4| \
B,,,4 F,,4| \
B,,,4 ^A,,,4|
G,,,4 F,,,4| \
E,,,4 F,,,4| \
B,,,4 A,,,4| \
G,,,4 F,,,4||
V:Flute name="Flute" sname="Flute"
%%MIDI program 73
% %MIDI channel 1
b8| \
c'/2a/2b/2e'/2 d'/2b/2g/2f/2 b4| \
e'6 d'c'| \
b/2g/2b/2d'/2 f'/2c'/2^a/2f/2 b4|
f'4 e'4| \
c'/2a/2c'/2e'/2 d'/2b/2a/2f/2 e4| \
f'3e'/2c'/2 b4| \
a/2f/2a/2c'/2 d'/2b/2d'/2f'/2 e'4||
z8| \
z8| \
z8| \
z8|
z8| \
z8| \
z8| \
b8-|
b8| \
b8| \
c'/2a/2b/2e'/2 d'/2b/2g/2f/2 b4| \
e'6 d'c'|
b/2g/2b/2d'/2 f'/2c'/2^a/2f/2 b4| \
f'4 e'4| \
c'/2a/2c'/2e'/2 d'/2b/2a/2f/2 e4| \
f'3e'/2c'/2 b4|
a/2f/2a/2c'/2 d'/2b/2d'/2f'/2 e'4| \
b8| \
e'8|
V:Clarinet2 name="Clarinet" sname="Clarinet" 
%%MIDI program 71
Z | Z | Z | Z | 
Z | Z | Z | Z | 
Z | Z | Z || Z | 
Z | Z | Z | Z | 
Z | Z | Z | Z ||
[eB-G-]3[fB-G-]/2[gBG-]/2 [fdG-][ecG-] [B-BG-][eBG]| \
[f-ec]2 [fd-B-][gdB] [g-fd]2 [gec]2| \
[g-ec][g-fd] [ge=d-][afd-]/2[bgd]/2 [aac-][gec] [f^dG-][ecG]| \
[f-BF-][f-dF-] [fc-F-][gcF] [B-EC][B-GE] [BFD]2|
[c-F-C]2 [cF-D-][dF-D-]/2[eFD]/2 [eB-E-][BBE] [ecG][gec]| \
[b-ec]2 [bd-B-][adB] [geB]4| \
[f-cF-][f-BF] [fAF][gc-A-]/2[acA]/2 [geB][eBG] [BGE][eBG]| \
[f-cA][f-ec] [fd-B-][edB] [e-cA][e-AF] [eBG]2||
[B][F] [B][d] [f][c] [^A][F]| \
[G][D] [G][B] [d][B] [A][F]| \
[G][B] [e][g] [f][e] [c][^A]| \
[B][F] [d][B] [f]4|
[B][F] [B][d] [f][c] [^A][F]| \
[G][D] [G][B] [d][B] [A][F]| \
[G][B] [e][g] [f][e] [c][^A]| \
[B-]8|
[B]8| \
[eB-G-]3[fB-G-]/2[gBG-]/2 [fdG-][ecG-] [B-BG-][eBG]| \
[f-ec]2 [fd-B-][gdB] [g-fd]2 [gec]2| \
[g-ec][g-fd] [ge=d-][afd-]/2[bgd]/2 [aac-][gec] [f^dG-][ecG]|
[f-BF-][f-dF-] [fc-F-][gcF] [B-EC][B-GE] [BFD]2| \
[c-F-C]2 [cF-D-][dF-D-]/2[eFD]/2 [eB-E-][BE] [ecG][gec]| \
[b-ec]2 [bd-B-][adB] [geB]4| \
[f-cF-][f-BF] [fAF][gc-A-]/2[acA]/2 [geB][eBG] [BGE][eBG]|
[f-cA][f-ec] [fd-B-][edB] [e-cA][e-AF] [eBG]2| \
[B]8| \
[geB]8|
V:Alto2 name="Alto Sax" sname="Alto Sax" 
%%MIDI program 65
Z | Z | Z | Z | 
Z | Z | Z | Z | 
Z | Z | Z || Z | 
Z | Z | Z | Z | 
Z | Z | Z | Z ||
[EB,-]3[FB,-]/2[GB,]/2 [FG,-][EG,-] [B,G,-][EG,]| \
[FA,-]3[GA,] [GB,]4| \
[G-E][G-D] [GE][AF]/2[BG]/2 [AE-][GE] [FG,-][EG,]| \
[F-B,][F-D] [FC-][GC] [B-E][B-G] [BF]2|
[C]3[D]/2[E]/2 [E][B,A,] [EC][GE]| \
[B-E]2 [BD-][AD] [GE]4| \
[F-C][F-B,] [FA,][GC-]/2[AC]/2 [GB,-][EB,] [B,G,][EB,]| \
[F-C][F-E] [FD-][ED] [E-C][E-A,] [EB,]2||
[DB,]/2z/2[DB,]2[DB,]/2z/2 [FC]/2z/2[FC]2[FC]/2z/2| \
[GD]/2z/2[GD]2[GD]/2z/2 [^AF]/2z/2[AF]2[AF]/2z/2| \
[GE]/2z/2[GE]2[GE]/2z/2 [E-B,]2 [EC]2| \
[DB,]2 [FD]2 [GE-]2 [FE]2|
[DB,]/2z/2[DB,]2[DB,]/2z/2 [FC]/2z/2[FC]2[FC]/2z/2| \
[GD]/2z/2[GD]2[GD]/2z/2 [^AF]/2z/2[AF]2[AF]/2z/2| \
[GE]/2z/2[GE]2[GE]/2z/2 [E-B,]2 [EC]2| \
[DB,][B,] [D][B,] [=G,G,][C] [E][C]|
[G,F,][=D] [^E][D] [A,][^D] [F][D]| \
[EB,-]3[FB,-]/2[GB,]/2 [FG,-][EG,-] [B,G,-][EG,]| \
[FA,-]3[GA,] [GB,]4| \
[G-E][G-D] [GE][AF]/2[BG]/2 [AE-][GE] [FG,-][EG,]|
[F-B,][F-D] [FC-][GC] [B-E][B-G] [BF]2| \
[CC]3[DD]/2[EE]/2 [EE][B,A,] [EC][GE]| \
[B-E]2 [BD-][AD] [GE]4| \
[F-C][F-B,] [FA,][GC-]/2[AC]/2 [GB,-][EB,] [B,G,][EB,]|
[F-C][F-E] [FD-][ED] [E-C][E-A,] [EB,]2| \
[CB,]8| \
[GB,]8|
V:Tenor2 name="Tenor Sax" sname="Tenor Sax"
%%MIDI program 66
Z | Z | Z | Z | 
Z | Z | Z | Z | 
Z | Z | Z || Z | 
Z | Z | Z | Z | 
Z | Z | Z | Z ||
G,4 DC B,G,| \
A,C B,A, G,4| \
ED =D2 C2 ^DC| \
G,B, ^A,2 CE D2|
CE DB, EB, G,2| \
A,C DF E4| \
CB, A,C EC G,2| \
A,C B,A, A,F, G,2||
F,/2z/2F,2F,/2z/2 G,/2z/2G,2G,/2z/2| \
B,/2z/2B,2B,/2z/2 B,/2z/2B,2B,/2z/2| \
B,/2z/2B,2B,/2z/2 G,2 ^A,2| \
F,2 B,2 B,2 ^A,2|
F,/2z/2F,2F,/2z/2 F,/2z/2F,2F,/2z/2| \
B,/2z/2B,2B,/2z/2 B,/2z/2B,2B,/2z/2| \
B,/2z/2B,2B,/2z/2 G,2 ^A,2| \
F,B, DB, A,C EC|
G,=D ^ED A,^D FD| \
G,4 DC B,G,| \
A,C B,A, G,4| \
ED =D2 C2 ^DC|
G,B, ^A,2 CE D2| \
CE DB, EB, G,2| \
A,C DF E4| \
CB, A,C EC G,2|
A,C B,A, A,F, G,2| \
A,8| \
G,8|
V:Bari2 name="Bari Sax" sname="Bari Sax" 
%%MIDI program 67
Z | Z | Z | Z | 
Z | Z | Z | Z | 
Z | Z | Z || Z | 
Z | Z | Z | Z | 
Z | Z | Z | Z ||
E,2 D,2 C,2 B,,G,,| \
F,,2 B,,2 E,,3D,| \
C,^B,, =B,,E,, A,,2 C,2| \
F,,4 B,,4|
^A,,2 =A,,2 G,,2 C,2| \
F,,2 B,,^B,, C,2 =B,,2| \
A,,G,, F,,2 B,,4| \
F,,2 B,,2 E,,4||
B,,4 ^A,,4| \
G,,4 F,,2 B,,2| \
E,2 D,2 C,2 F,,2| \
B,,2 G,,2 C,2 F,,2|
B,,4 ^A,,4| \
G,,4 F,,2 B,,2| \
E,2 D,2 C,2 F,,2| \
B,,8-|
B,,8| \
E,2 D,2 C,2 B,,G,,| \
F,,2 B,,2 E,,3D,| \
C,^B,, =B,,E,, A,,2 C,2|
F,,4 B,,4| \
^A,,2 =A,,2 G,,2 C,2| \
F,,2 B,,^B,, C,2 =B,,2| \
A,,G,, F,,2 B,,4|
F,,2 B,,2 E,,4| \
B,,8| \
E,,8|
V:Horn name="Horn in F" sname="Horn in F"
%%MIDI program 60
Z | Z | Z | Z | 
Z | Z | Z | Z | 
Z | Z | Z || Z | 
Z | Z | Z | Z | 
Z | Z | Z | Z || 
[EB,B,G,-]4 [FDDG,-][EC-C-G,-] [E-CCG,-][EB,B,G,]| \
[F-ECA,-]2 [FDB,A,]2 [FDB,-G,-]2 [ECB,G,-]2| \
[ECG,-G,-][FDG,-G,] [E-=DB,G,]2 [ECA,A,]2 [F^DG,-G,-][ECG,G,]| \
[E-B,G,G,]2 [EC^A,A,]2 [ECB,-=A,-][GEB,-A,-] [FDB,A,]2|
[F-ECF,-]2 [FDB,F,]2 [E-B,B,E,]2 [ECCG,]2| \
[ECA,-F,]2 [DB,A,-F,][FDA,A,] [ECG,G,]4| \
[C-F,-][C-B,F,-] [CA,F,]2 [EB,G,]4| \
[ECA,-F,-]2 [DB,A,F,]2 [E-CCA,][E-A,A,F,] [EB,B,G,]2||
[DB,F,-F,]4 [FCCF,]4| \
[GDB,G,]4 [AFDB,-]4| \
[GEB,B,]4 [E-C-B,G,]2 [EC^A,F,]2| \
[DB,-B,F,]2 [FDB,G,]2 [GE-C-B,]2 [FEC^A,]2|
[DB,F,-F,]4 [FCCF,]4| \
[GDB,G,]4 [AFDB,-]4| \
[GEB,B,]4 [E-C-B,G,]2 [EC^A,F,]2| \
[DB,B,F,]4 [ECC=G,]4|
[^E=DB,-G,]4 [F^DB,A,]4||
[EB,B,G,-]4 [FDDG,-][EC-C-G,-] [E-CCG,-][EB,B,G,]| \
[F-ECA,-]2 [FDB,A,]2 [FDB,-G,-]2 [ECB,G,-]2| \
[ECG,-G,-][FDG,-G,] [E-=DB,G,]2 [ECA,A,]2 [F^DG,-G,-][ECG,G,]|
[E-B,G,G,]2 [EC^A,A,]2 [ECB,-=A,-][GEB,-A,-] [FDB,A,]2| \
[F-ECF,-]2 [FDB,F,]2 [E-B,B,E,]2 [ECCG,]2| \
[ECA,-F,]2 [DB,A,-F,][FDA,A,] [ECG,G,]4| \
[C-CF,-F,-][C-B,F,-F,-] [CA,F,F,]2 [EB,G,G,]4|
[ECA,-F,-]2 [DB,A,F,]2 [E-CCA,][E-A,A,F,] [EB,B,G,]2| \
[ECA,F,]2 [FECA,]2 [AFEC]2 [cAFE]2| \
[BEEB,]8|
V:Trumpet name="Trumpet" sname="Trumpet"
%%MIDI program 56
Z | Z | Z | Z | 
Z | Z | Z | Z | 
Z | Z | Z || Z | 
Z | Z | Z | Z | 
Z | Z | Z | Z || 
z8| \
[B][B]/2[B]/2 [B]/2[B]/2[B]/2[B]/2 [B]4| \
z8| \
[F][F]/2[F]/2 [F]/2[F]/2[F]/2[F]/2 [B]4|
z8| \
[B][B]/2[B]/2 [B]/2[A]/2[F]/2[D]/2 [E]4| \
z8| \
[B][B]/2[B]/2 [B]/2[B]/2[B]/2[B]/2 [e]4||
[D]3[B,B,B,] [F]3[D]/2[F]/2| \
[G]3[D] [D]3[C]| \
[B,]3[C]/2[D]/2 [C]4| \
[D]3[E]/2[F]/2 [C]4|
[D]3[B,B,B,] [F]3[D]/2[F]/2| \
[G]3[D] [D]3[C]| \
[B,]3[C]/2[D]/2 [C]2 [c]2| \
[B][B]/2[B]/2 [B-]2 [B]/2[B]/2z/2[B]/2 [B]/2[B]/2z/2[B]/2|
[B][B]/2[B]/2 [B]/2[B]/2[B]/2[B]/2 [B]4||
z8| \
[B][B]/2[B]/2 [B]/2[B]/2[B]/2[B]/2 [B]4| \
z8|
[F][F]/2[F]/2 [F]/2[F]/2[F]/2[F]/2 [B]4| \
z8| \
[B][B]/2[B]/2 [B]/2[A]/2[F]/2[D]/2 [E]4| \
z8|
[B][B]/2[B]/2 [B]/2[B]/2[B]/2[B]/2 [eee]4| \
[FEC]2 [AFE]2 [cAF]2 [ecA]2| \
[geB]8|
V:Trombone2 name="Trombone" sname="Trombone"
%%MIDI program 57
Z | Z | Z | Z | 
Z | Z | Z | Z | 
Z | Z | Z || Z | 
Z | Z | Z | Z | 
Z | Z | Z | Z ||
[B,-G,-E,]2 [B,G,-D,]2 [FG,-C,-][E-G,C,] [E-G,B,,][EB,G,,]| \
[EA,-F,,]2 [DA,B,,]2 [DG,-E,-]2 [C-G,-E,][CG,D,]| \
[EG,-C,][FG,-^B,,] [EG,-=B,,][=DG,E,,] [CE,A,,]2 [FG,-C,-][EG,C,]| \
[E-G,F,,-]2 [E^A,F,,]2 [E=A,-B,,-]2 [DA,B,,]2|
[CF,-^A,,]2 [B,F,=A,,]2 [B,E,G,,]2 [EG,C,]2| \
[EA,-F,,]2 [D-A,-B,,][DA,^B,,] [E-G,-C,]2 [EG,=B,,]2| \
[CF,-A,,][B,F,-F,,] [A,F,F,,]2 [EG,B,,]4| \
[EA,-F,,]2 [DA,B,,]2 [E-CE,,-]2 [EB,E,,]2||
[DB,B,,]4 [CF,^A,,]4| \
[D-B,G,,]4 [D-A,-F,,]2 [DA,B,,]2| \
[E-G,-E,]2 [E-G,D,]2 [E-B,C,]2 [E^A,F,,]2| \
[D-B,-B,,]2 [DB,G,,]2 [E-B,C,]2 [E^A,F,,]2|
[DB,B,,]4 [CF,^A,,]4| \
[D-B,G,,]4 [D-A,-F,,]2 [DA,B,,]2| \
[E-G,-E,]2 [E-G,D,]2 [E-B,C,]2 [E^A,F,,]2| \
[DF,B,,-]4 [E=G,B,,-]4|
[^EG,B,,-]4 [FA,B,,]4| \
[B,-G,-E,]2 [B,G,-D,]2 [FG,-C,-][E-G,C,] [E-G,B,,][EB,G,,]| \
[EA,-F,,]2 [DA,B,,]2 [DG,-E,-]2 [C-G,-E,][CG,D,]| \
[EG,-C,][FG,-^B,,] [EG,-=B,,][=DG,E,,] [CE,A,,]2 [FG,-C,-][EG,C,]|
[E-G,F,,-]2 [E^A,F,,]2 [E=A,-B,,-]2 [DA,B,,]2| \
[CF,-^A,,]2 [B,F,=A,,]2 [B,E,G,,]2 [EG,C,]2| \
[EA,-F,,]2 [D-A,-B,,][DA,^B,,] [E-G,-C,]2 [EG,=B,,]2| \
[CF,-A,,][B,F,-F,,] [A,F,F,,]2 [EG,B,,]4|
[EA,-F,,]2 [DA,B,,]2 [E-CE,,-]2 [EB,E,,]2| \
[A,B,,B,,]8| \
[G,B,,E,,]8|
V:Tuba2 name="Tuba" sname="Tuba"
%%MIDI program 58
Z | Z | Z | Z | 
Z | Z | Z | Z | 
Z | Z | Z || Z | 
Z | Z | Z | Z | 
Z | Z | Z | Z ||
[G,-E,,]2 [G,D,,]2 [DC,,-][CC,,] [B,B,,,][G,G,,G,,,]| \
[A,F,,-F,,,-][CF,,F,,,] [B,B,,-B,,,-][A,B,,B,,,] [G,-E,,]3[G,D,,]| \
[EC,,][D^B,,,] [=D=B,,,][B,E,,] [CA,,A,,,]2 [^DC,,-][CC,,]| \
[G,F,,-][B,F,,-] [^A,F,,]2 [=A,B,,,]4|
[C^A,,-][EA,,] [D=A,,-][B,A,,] [EG,,-][B,G,,] [G,C,,]2| \
[A,F,,-][CF,,] [DB,,,][F^B,,,] [E-C,,]2 [E=B,,B,,,]2| \
[CA,,A,,,][B,G,,G,,,] [A,F,,-F,,,-][CF,,F,,,] [EB,,,-][B,B,,,-] [G,B,,,]2| \
[A,F,,-F,,,-][CF,,F,,,] [B,B,,,-][A,B,,,] [A,E,,-][F,E,,-] [G,E,,]2||
[F,-B,,]4 [F,^A,,]4| \
[G,G,,]4 [B,-F,,]2 [B,-B,,,]2| \
[B,-E,,]2 [B,D,,]2 [G,C,,]2 [F,F,,]2| \
[F,B,,,]2 [G,G,,]2 [B,C,,]2 [^A,F,,]2|
[F,-B,,]4 [F,^A,,]4| \
[G,G,,]4 [B,-F,,]2 [B,-B,,,]2| \
[B,-E,,]2 [B,D,,]2 [G,C,,]2 [F,F,,]2| \
[F,B,,,-][B,B,,,-] [DB,,,-][B,B,,,-] [=G,B,,,-][CB,,,-] [EB,,,-][CB,,,-]|
[G,B,,,-][=DB,,,-] [^EB,,,-][DB,,,-] [A,B,,,-][^DB,,,-] [FB,,,-][DB,,,]| \
[G,-E,,]2 [G,D,,]2 [DC,,-][CC,,] [B,B,,,][G,G,,G,,,]| \
[A,F,,-F,,,-][CF,,F,,,] [B,B,,-B,,,-][A,B,,B,,,] [G,-E,,]3[G,D,,]| \
[EC,,][D^B,,,] [=D=B,,,][B,E,,] [CA,,A,,,]2 [^DC,,-][CC,,]|
[G,F,,-][B,F,,-] [^A,F,,]2 [=A,B,,,]4| \
[C^A,,-][EA,,] [D=A,,-][B,A,,] [EG,,-][B,G,,] [G,C,,]2| \
[A,F,,-][CF,,] [DB,,,][F^B,,,] [E-C,,]2 [E=B,,B,,,]2| \
[CA,,A,,,][B,G,,G,,,] [A,F,,-F,,,-][CF,,F,,,] [EB,,,-][B,B,,,-] [G,B,,,]2|
[A,F,,-F,,,-][CF,,F,,,] [B,B,,,-][A,B,,,] [A,E,,-][F,E,,-] [G,E,,]2| \
[CB,,,]8| \
[B,E,,]8|


